source/images/icons/icon-editorial/oeil.svg

<?xml version="1.0" encoding="UTF-8"?>
<svg width="80px" height="80px" viewBox="0 0 80 80" version="1.1" xmlns="http://www.w3.org/2000/svg" xmlns:xlink="http://www.w3.org/1999/xlink">
    <!-- Generator: Sketch 55.2 (78181) - https://sketchapp.com -->
    <title>Illustrative Icons/Oeil</title>
    <desc>Created with Sketch.</desc>
    <g id="Illustrative-Icons/Oeil" stroke="none" stroke-width="1" fill="none" fill-rule="evenodd">
        <path d="M74.659225,39.3438733 C70.7313683,34.0499702 65.634647,29.7340693 59.7658917,26.7322066 C47.3339867,20.4225978 32.6377966,20.4225978 20.2058916,26.7322066 C14.3417694,29.735467 9.24968911,34.0513016 5.3258916,39.3438733 C4.89136947,39.9323545 4.89136947,40.735392 5.3258916,41.3238733 C9.25374835,46.6177764 14.3504697,50.9336773 20.219225,53.93554 C32.6511945,60.244879 47.3472555,60.244879 59.779225,53.93554 C65.6431463,50.9319783 70.7351632,46.6161974 74.659225,41.3238733 C75.0937472,40.735392 75.0937472,39.9323545 74.659225,39.3438733 L74.659225,39.3438733 Z M8.75589161,40.3338733 C13.4456926,34.404704 19.7456737,29.9535738 26.9008916,27.5138733 C19.9120057,34.6317804 19.9120057,46.0359662 26.9008916,53.1538733 C19.7456737,50.7141728 13.4456926,46.2630426 8.75589161,40.3338733 L8.75589161,40.3338733 Z M58.2558917,50.9672066 C52.5968459,53.8404479 46.3392351,55.3366097 39.9925583,55.3338771 C39.8525583,55.3338771 39.7108916,55.3338771 39.5708916,55.3338771 C31.4526842,55.1074013 24.989181,48.4610724 24.989181,40.3397066 C24.989181,32.2183409 31.4526842,25.572012 39.5708916,25.3455399 C39.7108916,25.3455399 39.8525583,25.3455399 39.9925583,25.3455399 C40.1325583,25.3455399 40.274225,25.3455399 40.414225,25.3455399 C48.5246657,25.5832478 54.979833,32.2199598 54.9925583,40.3338733 C54.9925583,41.2543479 55.7387504,42.00054 56.659225,42.00054 C57.5796996,42.00054 58.3258917,41.2543479 58.3258917,40.3338733 C58.3287531,35.5382563 56.4461262,30.9337521 53.084225,27.5138733 C60.239443,29.9535738 66.539424,34.404704 71.229225,40.3338733 C67.7152636,44.765591 63.2912288,48.3916627 58.2558917,50.9672066 Z M54.9925583,48.6672066 C55.9130329,48.6672066 56.659225,47.9210146 56.659225,47.00054 C56.659225,46.0800654 55.9130329,45.3338733 54.9925583,45.3338733 C54.0720837,45.3338733 53.3258917,46.0800654 53.3258917,47.00054 C53.3258917,47.9210146 54.0720837,48.6672066 54.9925583,48.6672066 Z" id="Shape-color" fill="#ADB5BD"></path>
    </g>
</svg>

<svg width="80" height="80">
    <title>
        Illustrative Icons/Oeil
    </title>
    <path d="M74.66 39.344a42.833 42.833 0 0 0-14.894-12.612 43.705 43.705 0 0 0-39.56 0 42.823 42.823 0 0 0-14.88 12.612 1.667 1.667 0 0 0 0 1.98 42.833 42.833 0 0 0 14.893 12.612 43.707 43.707 0 0 0 39.56 0 42.833 42.833 0 0 0 14.88-12.612 1.667 1.667 0 0 0 0-1.98zm-65.904.99A39.31 39.31 0 0 1 26.9 27.514c-6.989 7.118-6.989 18.522 0 25.64a39.31 39.31 0 0 1-18.145-12.82zm49.5 10.633a40.303 40.303 0 0 1-18.263 4.367h-.422c-8.118-.227-14.582-6.873-14.582-14.994 0-8.122 6.464-14.768 14.582-14.994h.843c8.11.237 14.566 6.874 14.579 14.988a1.667 1.667 0 0 0 3.333 0c.003-4.796-1.88-9.4-5.242-12.82a39.31 39.31 0 0 1 18.145 12.82 39.53 39.53 0 0 1-12.973 10.633zm-3.263-2.3a1.667 1.667 0 1 0 0-3.333 1.667 1.667 0 0 0 0 3.333z" fill="#ADB5BD" fill-rule="evenodd"/>
</svg>
